X:1
T:For Such a Time as This
T:For Such a Time as This
T:Scott Werdebaugh
T:Scott Werdebaugh, 1998
T:© 1998 Scott Werdebaugh. Reproduce or publish freely for Christian worship or devotions. Courtesy of the Cyber Hymnal™
T:© 1998 Scott Werdebaugh. Reproduce or publish freely for Christian worship or devotions. Courtesy of the Cyber Hymnal™
C:Scott Werdebaugh
Z:© 1998 Scott Werdebaugh. Reproduce or publish freely for Christian worship or devotions.
Z:Courtesy of the Cyber Hymnal™
%%score 1 ( 2 3 ) ( 4 5 )
L:1/8
Q:1/4=88
M:4/4
K:C
V:1 treble 
V:2 treble 
V:3 treble 
V:4 bass 
V:5 bass 
V:1
"^Smooth and Flowing; Legato" G | AG FE D2 D/-DG/ | E6 z G | AG FE D2 A/-AB/ | G6 z G | %5
w: 1.~For|such a time as this, Lord, * You’ve|come To|bring sal- va- tion to ev- * ’ry-|one. With|
w: 2.~For|such a time as this, our~bur- * dens|bear, And|hold us close to You, Your~com- * fort|share. When|
w: 3.~For|such a time as this, light * our|way, And|show us how to live, this * we|pray. When|
w: 4.~For|such a time as this, help * us|show Your|love to ev- ’ry- one; let * them|know Their|
 AG FE D3 D | E2 (D>C) C3 E | FE DC D2 C>B, | C6 z"^Play 4 times" :| %9
w: You be- side us, Lord, we|have no * fear; For|such a time as this, Lord, You’re|here.|
w: storms as- sail us, Lord, and|foes in- * crease; For|such a time as this, be our|Peace.|
w: life o’er- takes us, Lord, in|You we’ll * hide; For|such a time as this, be our|Guide.|
w: hurts and pain You’ll heal, their|sin for- * give; For|such a time as this, may we|live.|
V:2
 [EG] | [FA][EG] [DF][CE] [B,D]2 [B,D]/-[B,D][DG]/ | [CE]6 z [EG] | %3
 [FA][EG] [DF][CE] [B,D]2 A/-[FA][GB]/ | [EG]6 z [EG] | [FA][EG] [DF][CE] [B,D]3 [B,D] | %6
 [CE]2 (D>C) C3 [CE] | [DF][CE] [B,D]C [B,D]2 C>B, | [G,C]6 z"^Play 4 times" :| %9
V:3
 x | x8 | x8 | x6 F- x | x8 | x8 | x2 B,2 C3 x | x3 C x C>B, x | x7 :| %9
V:4
 [C,G,] | [C,F,][C,E,] [G,B,][E,G,] [D,G,]2 [D,G,]/-[D,G,][F,B,]/ | [C,G,]6 z [C,E,] | %3
 [C,F,][C,E,] [D,G,][E,G,] G,2 [F,C]/-[F,C][F,D]/ | [C,G,]6 z [C,E,] | %5
 [C,F,][C,G,] [B,,G,][C,G,] [D,G,]3 [D,G,] | [C,G,]2 [B,,G,]2 [A,,E,]3 [C,G,] | %7
 [F,A,][E,A,] [D,G,][E,G,] [D,G,]2 [C,E,]>[D,G,] | [C,E,]6 z"^Play 4 times" :| %9
V:5
 x | x8 | x8 | x4 G,2 x2 | x8 | x8 | x8 | x8 | x7 :| %9

